optimized/24/outline/qq.svg

<svg viewBox="0 0 24 24" xmlns="http://www.w3.org/2000/svg" fill="currentColor" data-slot="icon">
  <g clip-path="url(#clip0_4643_41)">
    <path d="M20.0906 12.9351C19.8357 12.1187 19.4101 11.3641 18.8414 10.7202V10.6289C18.8438 10.0724 18.7089 9.52384 18.4482 9.03049C18.4547 7.32408 17.7819 5.68344 16.5747 4.46197C15.3676 3.24049 13.7228 2.53591 11.9945 2.5C10.2652 2.53596 8.61986 3.24249 7.41427 4.46676C6.20867 5.69102 5.5398 7.33458 5.55234 9.0419C5.2935 9.53183 5.15859 10.0763 5.1591 10.6289V10.6974C4.58264 11.3637 4.15327 12.1414 3.89843 12.9807C3.28544 14.9673 3.41267 17.2393 4.83526 17.7302L5.11284 17.7987C4.91622 18.1184 4.81213 18.486 4.81213 18.8605C4.81213 20.3903 6.50074 21.4978 8.82546 21.4978C9.86935 21.5277 10.8991 21.2538 11.7863 20.71H12.2027C13.0863 21.2522 14.1119 21.5262 15.152 21.4978C17.4651 21.4978 19.1769 20.3561 19.1769 18.8605C19.1786 18.4842 19.0701 18.1155 18.8646 17.7987C18.9635 17.7882 19.0607 17.7652 19.1537 17.7302C20.5763 17.1936 20.7035 14.9216 20.0906 12.9351ZM18.3326 15.8921C18.2517 15.7894 18.1452 15.7092 18.0236 15.6592C17.902 15.6092 17.7694 15.5911 17.6386 15.6066C17.5063 15.6174 17.3791 15.662 17.2695 15.736C17.16 15.8101 17.0719 15.9111 17.0141 16.0291C16.8544 16.3139 16.6767 16.5884 16.482 16.8511C16.4086 16.9478 16.3581 17.0596 16.334 17.1781C16.31 17.2966 16.3132 17.4189 16.3432 17.5361C16.3737 17.6545 16.4312 17.7644 16.5114 17.8574C16.5916 17.9505 16.6923 18.0241 16.8059 18.0727C17.2801 18.2782 17.5808 18.5636 17.5808 18.8148C17.5808 19.3057 16.5399 19.8537 15.152 19.8537C14.3777 19.8938 13.6122 19.6768 12.9776 19.2372C12.8179 19.1005 12.6103 19.0308 12.3993 19.0431C12.1338 19.0658 11.8668 19.0658 11.6013 19.0431C11.4947 19.0342 11.3875 19.0468 11.2861 19.0802C11.1847 19.1136 11.0912 19.167 11.0114 19.2372C10.3736 19.6792 9.60357 19.8964 8.82546 19.8537C7.43757 19.8537 6.40821 19.3057 6.40821 18.8148C6.40821 18.5636 6.70892 18.2782 7.19469 18.0727C7.30599 18.0207 7.40423 17.945 7.48231 17.851C7.5604 17.757 7.61639 17.647 7.64626 17.5291C7.67613 17.4112 7.67913 17.2882 7.65504 17.1689C7.63095 17.0497 7.58038 16.9373 7.50696 16.8397C7.30937 16.5813 7.13521 16.3062 6.9865 16.0177C6.92289 15.9041 6.83331 15.8068 6.72488 15.7335C6.61645 15.6601 6.49218 15.6128 6.36195 15.5952C6.23 15.5857 6.09763 15.6066 5.97521 15.6561C5.8528 15.7056 5.74368 15.7825 5.65643 15.8806C5.57323 15.9913 5.47606 16.0911 5.36729 16.1775C5.00746 15.2868 5.00746 14.2938 5.36729 13.4032C5.59883 12.7015 5.99513 12.0639 6.52387 11.5422C6.62056 11.4533 6.69337 11.3421 6.73576 11.2185C6.77815 11.095 6.7888 10.963 6.76675 10.8344C6.76099 10.7584 6.76099 10.682 6.76675 10.606C6.77689 10.2844 6.86834 9.97047 7.03276 9.69267C7.12703 9.52592 7.16739 9.3347 7.14842 9.14466C7.12995 8.49896 7.24075 7.85602 7.47447 7.25267C7.7082 6.64932 8.06024 6.09744 8.51043 5.62865C8.96062 5.15985 9.50011 4.78337 10.098 4.52078C10.6958 4.25818 11.3403 4.11464 11.9945 4.09837C12.6517 4.1161 13.2989 4.26169 13.899 4.52681C14.4991 4.79192 15.0403 5.17134 15.4916 5.64332C15.9429 6.1153 16.2954 6.67056 16.5288 7.27727C16.7623 7.88398 16.8722 8.53021 16.8521 9.17891C16.8369 9.34329 16.8776 9.50801 16.9678 9.647C17.1494 9.94384 17.2488 10.2818 17.2569 10.6289C17.2627 10.7088 17.2627 10.7887 17.2569 10.8686C17.238 10.9909 17.2468 11.1158 17.2828 11.2343C17.3188 11.3528 17.3811 11.4619 17.4651 11.5536C17.9958 12.0693 18.3926 12.7038 18.6217 13.4032C18.9869 14.284 19.0157 15.2658 18.7027 16.1661C18.5578 16.1071 18.4304 16.0129 18.3326 15.8921Z"/>
  </g>
  <defs>
    <clipPath id="clip0_4643_41">
      <rect width="24" height="24"/>
    </clipPath>
  </defs>
</svg>

<svg xmlns="http://www.w3.org/2000/svg" viewBox="0 0 24 24" fill="currentColor" data-slot="icon">
  <g clip-path="url(#a)">
    <path d="M20.09 12.935a6.087 6.087 0 0 0-1.249-2.215v-.091a3.389 3.389 0 0 0-.393-1.599 6.463 6.463 0 0 0-1.873-4.568 6.633 6.633 0 0 0-4.58-1.962 6.622 6.622 0 0 0-4.58 1.967 6.452 6.452 0 0 0-1.863 4.575 3.39 3.39 0 0 0-.393 1.587v.068a6.278 6.278 0 0 0-1.26 2.284c-.614 1.986-.486 4.258.936 4.75l.278.068c-.197.32-.3.687-.3 1.061 0 1.53 1.688 2.638 4.012 2.638a5.373 5.373 0 0 0 2.961-.788h.417c.883.542 1.909.816 2.949.788 2.313 0 4.025-1.142 4.025-2.638a1.935 1.935 0 0 0-.312-1.061c.099-.01.196-.034.289-.069 1.422-.536 1.55-2.808.937-4.795Zm-1.757 2.957a.762.762 0 0 0-.694-.285.772.772 0 0 0-.625.422 7.73 7.73 0 0 1-.532.822.807.807 0 0 0-.139.685.796.796 0 0 0 .463.537c.474.205.775.49.775.742 0 .49-1.041 1.039-2.429 1.039a3.502 3.502 0 0 1-2.174-.617.817.817 0 0 0-.579-.194 4.684 4.684 0 0 1-.798 0 .796.796 0 0 0-.59.194 3.502 3.502 0 0 1-2.186.617c-1.387 0-2.417-.548-2.417-1.04 0-.25.3-.536.787-.741a.831.831 0 0 0 .451-.544.812.812 0 0 0-.139-.69 5.508 5.508 0 0 1-.52-.821.837.837 0 0 0-.625-.423.866.866 0 0 0-.706.286c-.083.11-.18.21-.289.296a3.7 3.7 0 0 1 0-2.774 4.671 4.671 0 0 1 1.157-1.86.786.786 0 0 0 .243-.709 1.512 1.512 0 0 1 0-.228c.01-.322.101-.636.266-.913a.926.926 0 0 0 .115-.548 4.853 4.853 0 0 1 .326-1.892A4.901 4.901 0 0 1 8.51 5.629c.45-.47.99-.846 1.588-1.108a5.027 5.027 0 0 1 1.896-.423 5.05 5.05 0 0 1 1.905.429c.6.265 1.141.644 1.593 1.116a4.922 4.922 0 0 1 1.037 1.634c.233.607.343 1.253.323 1.902a.735.735 0 0 0 .116.468c.181.297.28.635.289.982.006.08.006.16 0 .24a.824.824 0 0 0 .208.685c.53.515.928 1.15 1.157 1.85a3.88 3.88 0 0 1 .08 2.762.924.924 0 0 1-.37-.274Z"/>
  </g>
  <defs>
    <clipPath id="a">
      <rect width="24" height="24"/>
    </clipPath>
  </defs>
</svg>
